selz-ecommerce/dist/img/svg/logo.svg

<svg xmlns="http://www.w3.org/2000/svg" width="100" height="57" viewBox="0 0 100 57">
  <g fill="#7959C7" fill-rule="evenodd">
    <path d="M24.52875,0.0828585366 C27.5251389,0.0939804878 30.5476389,0.619492683 33.3336111,1.73683171 C36.0840278,2.83957317 38.6683333,4.61088293 40.2944444,7.13375854 C41.9891667,9.7641 42.4983333,13.2536122 41.8097222,16.2890707 C41.1763889,19.078178 39.4416667,21.4937268 37.2023611,23.2507171 C36.0123611,24.184961 34.23125,24.6854488 32.9431944,23.2326439 C31.4956944,21.5998024 32.4313889,19.8649171 33.4025,18.9367902 C34.6341667,17.7596707 35.4080556,16.4379659 35.5275,14.8708829 C35.6501389,13.2529171 35.0809722,11.4247463 33.9777778,10.2299707 C32.08125,8.17713659 29.0036111,7.38275122 26.3280556,7.09608293 C23.4669444,6.78939512 20.1940278,7.0560439 17.6616667,8.5374878 C15.9568056,9.53526585 14.4216667,11.4884195 14.18,13.4927341 C13.9504167,15.4026512 14.9816667,17.1838317 16.2208333,18.5484951 C18.4004167,20.9486122 21.3176389,22.292422 24.2041667,23.6301146 C27.4883333,25.1524317 30.8194444,26.7007463 33.6744444,28.9625341 C36.2022222,30.9651805 38.3583333,33.6138732 39.5404167,36.6400171 C40.59375,39.335422 40.6029167,42.3238902 39.6352778,45.0454317 C38.6556944,47.8008951 36.7777778,50.1579146 34.5297222,51.9924805 C32.0752778,53.9952659 29.26375,55.341578 26.1852778,56.059361 C23.1377778,56.7700537 19.9733333,57.0305854 16.8491667,56.834839 C14.1186111,56.663422 11.4056944,56.1272049 8.86583333,55.0939756 C6.16694444,53.9956829 3.48208333,52.2125561 1.87416667,49.7325 C0.228888889,47.1966951 -0.284166667,44.146222 0.144166667,41.1752707 C0.359444444,39.6818707 0.785833333,38.2140512 1.39138889,36.833539 C1.54652778,36.4795829 1.78777778,36.035539 1.88930556,35.8561976 C2.50138889,34.7751439 4.03013889,34.342222 5.04819444,34.6300024 C6.53097222,35.0501341 7.35652778,36.5760659 7.03097222,38.0683537 C7.00777778,38.1723439 6.71847222,39.1145122 6.65416667,39.3715683 C6.36319444,40.5370098 6.24361111,41.7683488 6.38833333,42.9634024 C6.55777778,44.3631 7.17805556,45.5906854 8.17833333,46.580122 C10.1297222,48.5089463 12.92,49.3925854 15.5769444,49.7623902 C18.5127778,50.171122 21.56125,50.0195854 24.4508333,49.3633902 C26.5419444,48.8876488 28.4191667,48.0423805 30.0944444,46.6891171 C31.3763889,45.6536634 32.5316667,44.351561 33.1055556,42.7836439 C33.52875,41.6289073 33.5691667,40.3697634 33.1272222,39.2130805 C32.2925,37.0276171 30.5719444,35.2063976 28.7019444,33.869261 C26.0419444,31.9678244 22.9719444,30.6758707 20.0172222,29.3134317 C17.3676389,28.0908512 14.8376389,26.6630707 12.645,24.7156171 C10.3891667,22.7122756 8.51,20.183422 7.68638889,17.2475049 C6.91486111,14.4980195 7.17277778,11.5627976 8.38805556,8.98180976 C9.60194444,6.40374146 11.6127778,4.09871707 14.0616667,2.63437317 C16.595,1.11928537 19.5477778,0.387043902 22.47,0.157236585 C23.1544444,0.103573171 23.8419444,0.0786878049 24.52875,0.0827195122"/>
    <path d="M49.7375,26.5278 C52.4908333,26.5500439 55.1363889,27.8967732 56.53,30.3187171 C58.005,32.8837171 57.7208333,35.9825707 56.5108333,38.5871927 C55.2851389,41.2253195 53.2263889,43.3662951 50.8619444,45.0194341 C48.6372222,46.5758122 46.1195833,47.8193854 43.5019444,48.5428683 C44.2852778,49.2630146 45.1827778,49.8437195 46.2158333,50.1249659 C47.5736111,50.4956049 49.0116667,50.3696488 50.3716667,50.0832585 C53.0936111,49.5102 55.9116667,48.3054146 57.9286111,46.3443366 C59.2263889,45.0826902 60.3848611,43.6273829 60.82125,41.8335512 C60.8420833,41.7490244 61.0323611,40.8367463 61.1316667,40.5719049 C61.2880556,40.1523293 62.1108333,38.8295122 63.5168056,38.8142195 C65.2105556,38.7965634 65.8629167,40.0117756 65.97375,40.2192 C66.3195833,40.8621878 66.3376389,41.5860878 66.315,42.3612878 C66.2701389,43.8827707 65.9284722,45.3897951 65.3469444,46.7939415 C64.1477778,49.6875951 61.9633333,51.870139 59.3229167,53.4976976 C56.7798611,55.0653366 53.8429167,56.1595976 50.8993056,56.6584171 C47.6820833,57.2029756 44.3677778,56.8622268 41.5159722,55.1997732 C40.2581944,54.4664195 39.1354167,53.5147976 38.1445833,52.4504268 C37.5893056,51.8534561 37.1413889,51.2100512 36.8188889,50.4584854 C36.7497222,50.2972171 36.6318056,49.9447902 36.5730556,49.7794902 C35.4977778,49.8459439 34.1877778,48.9862171 33.8938889,47.7286024 C33.5205556,46.1326024 34.6261111,44.8293878 35.9477778,44.4242707 C35.9561111,44.2064195 35.9620833,43.884161 35.9769444,43.6663098 C36.0676854,42.3421588 36.262548,41.0272263 36.5597222,39.7337268 C37.2319444,36.7996171 38.4375,33.943639 40.3048611,31.5677122 C42.0448611,29.3530537 44.4544444,27.5638098 47.2031944,26.8533951 C48.0316667,26.6392976 48.8816667,26.5243244 49.7376389,26.528078 M49.6497222,33.0851634 C47.9281944,33.0987878 46.355,34.4492707 45.3673611,35.7326049 C43.9909722,37.5211537 43.2065278,39.7412341 42.7905556,41.9410171 C45.3433333,40.7618122 47.9836111,39.5150415 49.7280556,37.2091829 C50.2715278,36.4904268 50.7675,35.6457146 50.9394444,34.7480341 C51.0238889,34.3037122 51.0583333,33.7220341 50.6886111,33.3879585 C50.4163889,33.1425805 50.0025,33.0801585 49.6497222,33.0853024"/>
    <path d="M75.5995833,0.356736585 C78.0923611,0.41484878 80.3083333,1.71500488 81.4623611,3.95149024 C82.7675,6.47950976 82.6748611,9.51691463 82.2929167,12.2587537 C81.8206944,15.6540073 80.8373611,18.9903146 79.795,22.2490463 C78.72625,25.5884122 77.4579167,28.8679976 75.9727778,32.0447049 C74.5315278,35.1282659 72.8822222,38.1190976 70.9918056,40.9499122 C70.0945833,42.294 69.1445833,43.5833122 68.09625,44.8134 C67.9006944,45.0422341 67.5694444,45.4383146 67.3754167,45.7362439 C67.4323611,46.141361 67.5656944,46.6126537 67.6615278,46.9670268 C67.8318056,47.5991707 68.0601389,48.227422 68.3775,48.8011756 C69.1038889,50.1135659 70.3386111,50.5751268 71.7656944,50.2125512 C74.0615278,49.6275366 76.0993056,48.2706585 77.90875,46.7811512 C78.4620833,46.3255683 78.9948611,45.8149317 79.5490278,45.3642146 C80.7406944,44.3941024 82.2001389,44.2983146 83.3025,45.3914634 C84.515,46.5940244 84.2216667,48.0387659 83.3309722,49.179878 C81.4248611,51.6225366 79.0434722,53.8608293 76.3173611,55.3647951 C73.5545833,56.8890585 70.2245833,57.4696244 67.2469444,56.2103415 C64.7691667,55.1620976 62.9852778,53.072561 61.9909722,50.6069634 C61.3913889,51.0610171 60.7423611,51.5328659 60.0895833,51.9093439 C59.2329167,52.4028805 57.4652778,52.8199537 56.3229167,51.1562488 C55.30625,49.6764732 56.2243056,48.1505415 57.08125,47.4081512 C57.5473611,47.0049805 58.0541667,46.5823463 58.5025,46.1517878 C59.0872222,45.5891561 59.6473611,45.0006659 60.1865278,44.3939634 C60.2777778,44.2913634 60.4615278,44.1061829 60.5369444,43.9959366 C60.5305556,43.8124244 60.4988889,43.5335415 60.4873611,43.3733854 C60.4568056,42.9421317 60.4326389,42.510878 60.4165278,42.0790683 C60.383587,41.1802605 60.3737689,40.2807527 60.3870833,39.381439 C60.4422222,35.6323683 60.8526389,31.8908049 61.4356944,28.1891415 C61.9854167,24.7032439 62.7065278,21.2393122 63.6130556,17.829322 C64.4306944,14.7547976 65.4081944,11.6990415 66.7079167,8.79176341 C67.9370833,6.0425561 69.5206944,3.01321463 72.1518056,1.3623 C73.1918056,0.709719512 74.3690278,0.348534146 75.5994444,0.356597561 M75.6154167,6.92897561 C74.7038889,7.54068293 74.09625,8.69486341 73.5904167,9.62702195 C72.8584722,10.9738902 72.265,12.3936073 71.7311111,13.8290341 C70.4930556,17.1547756 69.5938889,20.6064732 68.8586111,24.0754098 C68.1426389,27.450922 67.5734722,30.8705049 67.2466667,34.3066317 C67.2366667,34.4186854 67.2254167,34.530878 67.2143056,34.6433488 C68.9420833,31.7131317 70.4181944,28.6349927 71.6781944,25.4760805 C72.9698611,22.2375073 74.0458333,18.912322 74.9254167,15.5382 C75.3426389,13.9390024 75.7115278,12.3225659 75.8881944,10.6770732 C76.0002778,9.63133171 76.0766667,8.51343659 75.8243056,7.4795122 C75.7806944,7.30156098 75.7254167,7.0668878 75.6154167,6.92897561"/>
    <path d="M93.9391667,29.6505659 C94.6844444,29.7762439 95.5880556,30.2931366 96.09,31.0852976 C96.5723611,31.8465951 96.6155556,32.6874146 96.5330556,33.5582634 C96.4104167,34.8637024 96.06875,36.1596878 95.5708333,37.3708683 C94.575,39.7923951 93.0504167,41.9664585 91.3072222,43.9055707 C89.3495833,46.0845 87.0877778,47.9914976 84.6827778,49.6579829 C84.4795428,49.7998721 84.274715,49.9394615 84.0683333,50.0767244 C86.8359722,50.6752244 89.55125,50.9062829 92.2591667,49.9112854 C93.4836111,49.4612634 94.9008333,48.4779439 95.5891667,47.9221244 C96.1980556,47.4305341 97.8019444,46.4283073 99.0947222,47.5578805 C100.560417,48.8387122 99.9238889,50.3077829 99.4151389,51.0012366 C98.9198611,51.6750878 98.2894444,52.3219683 97.7211111,52.8232902 C95.4102778,54.8620829 92.5722222,56.1629341 89.5386111,56.6673146 C86.3048611,57.2060341 83.0420833,56.7668561 79.9597222,55.7069341 C78.4780556,55.1972707 77.0425,54.5574805 75.6541667,53.8331634 C74.9141667,53.4466756 74.0273611,53.0175073 73.6333333,52.2307683 C73.2273611,51.4183098 72.9472222,50.4025976 73.3194444,49.5114512 C73.6986111,48.6044561 74.2688889,47.8841707 75.1969444,47.4917049 C76.0020833,47.1510951 76.7886111,46.768778 77.5588889,46.3544854 C78.9348611,45.6134854 80.2597222,44.7751683 81.5277778,43.8606659 C84.0569444,42.0363878 86.4629167,39.8720561 88.2101389,37.266739 C88.31375,37.112422 88.4145833,36.9575488 88.5129167,36.799339 C87.0379167,36.8632902 85.5615278,36.7969756 84.0948611,36.6304244 C83.2727942,36.5380062 82.4551255,36.4098904 81.6441667,36.246439 C81.3280556,36.1824878 80.9613889,36.1004634 80.6513889,36.0131561 C79.9925,35.8272805 78.5097222,35.0513854 78.7701389,33.2643659 C78.9590278,31.9692146 80.1025,31.2204293 81.2293056,31.2031902 C81.7761111,31.1944317 82.7533333,31.293278 83.3477778,31.3056512 C84.1597222,31.3226122 84.9720833,31.2987 85.7813889,31.2375293 C87.1533333,31.1318707 88.5293056,30.9294512 89.86375,30.5887024 C90.47625,30.432578 91.0818056,30.2467024 91.6770833,30.0349683 C92.4570833,29.7569195 93.2615278,29.5365659 93.9390278,29.6507049 L93.9391667,29.6505659 Z"/>
  </g>
</svg>

<svg xmlns="http://www.w3.org/2000/svg" width="100" height="57" viewBox="0 0 100 57"><g fill="#7959C7" fill-rule="evenodd"><path d="M24.529.083c2.996.011 6.019.536 8.805 1.654 2.75 1.103 5.334 2.874 6.96 5.397 1.695 2.63 2.204 6.12 1.516 9.155-.634 2.79-2.368 5.205-4.608 6.962-1.19.934-2.97 1.434-4.259-.018-1.447-1.633-.512-3.368.46-4.296 1.231-1.177 2.005-2.499 2.125-4.066.122-1.618-.447-3.446-1.55-4.641-1.897-2.053-4.974-2.847-7.65-3.134-2.861-.307-6.134-.04-8.666 1.441-1.705.998-3.24 2.951-3.482 4.956-.23 1.91.802 3.69 2.04 5.055 2.18 2.4 5.098 3.744 7.984 5.082 3.284 1.522 6.615 3.07 9.47 5.333 2.528 2.002 4.684 4.65 5.866 7.677 1.054 2.695 1.063 5.684.095 8.405-.98 2.756-2.857 5.113-5.105 6.947-2.455 2.003-5.266 3.35-8.345 4.067a32.33 32.33 0 0 1-9.336.776c-2.73-.172-5.443-.708-7.983-1.741-2.7-1.098-5.384-2.881-6.992-5.361C.23 47.197-.284 44.145.144 41.175a16.819 16.819 0 0 1 1.247-4.341c.156-.354.397-.798.498-.978.612-1.08 2.141-1.514 3.16-1.226 1.482.42 2.308 1.946 1.982 3.438-.023.104-.313 1.047-.377 1.304-.29 1.165-.41 2.396-.266 3.591.17 1.4.79 2.628 1.79 3.617 1.952 1.929 4.742 2.813 7.399 3.182 2.936.41 5.984.258 8.874-.399 2.09-.475 3.968-1.32 5.643-2.674 1.282-1.035 2.438-2.337 3.012-3.905.423-1.155.463-2.414.021-3.57-.835-2.186-2.555-4.008-4.425-5.345-2.66-1.901-5.73-3.193-8.685-4.556-2.65-1.222-5.18-2.65-7.372-4.597-2.256-2.004-4.135-4.533-4.959-7.468a11.878 11.878 0 0 1 .702-8.266c1.214-2.578 3.225-4.883 5.674-6.348C16.595 1.12 19.548.387 22.47.157a24.51 24.51 0 0 1 2.059-.074"/><path d="M49.737 26.528c2.754.022 5.4 1.369 6.793 3.79 1.475 2.566 1.19 5.665-.02 8.27-1.225 2.637-3.284 4.778-5.648 6.431-2.225 1.557-4.742 2.8-7.36 3.524.783.72 1.68 1.3 2.714 1.582 1.358.37 2.796.245 4.156-.042 2.722-.573 5.54-1.778 7.557-3.739 1.297-1.261 2.456-2.717 2.892-4.51.021-.085.211-.997.31-1.262.157-.42.98-1.742 2.386-1.758 1.694-.017 2.346 1.198 2.457 1.405.346.643.364 1.367.341 2.142a12.594 12.594 0 0 1-.968 4.433c-1.2 2.894-3.384 5.076-6.024 6.704a23.854 23.854 0 0 1-8.424 3.16c-3.217.545-6.531.204-9.383-1.458-1.258-.734-2.38-1.685-3.371-2.75-.556-.597-1.004-1.24-1.326-1.992-.07-.16-.187-.513-.246-.679-1.075.067-2.385-.793-2.68-2.05-.372-1.596.733-2.9 2.055-3.305.008-.218.014-.54.029-.758.09-1.324.286-2.639.583-3.932.672-2.934 1.877-5.79 3.745-8.166 1.74-2.215 4.15-4.004 6.898-4.715a9.953 9.953 0 0 1 2.535-.325m-.088 6.557c-1.722.014-3.295 1.364-4.283 2.648-1.376 1.788-2.16 4.008-2.576 6.208 2.552-1.18 5.193-2.426 6.937-4.732.544-.719 1.04-1.563 1.211-2.461.085-.444.12-1.026-.25-1.36-.273-.245-.687-.308-1.04-.303"/><path d="M75.6.357c2.492.058 4.708 1.358 5.862 3.594 1.305 2.529 1.213 5.566.83 8.308-.471 3.395-1.455 6.731-2.497 9.99a82.527 82.527 0 0 1-3.822 9.796c-1.441 3.083-3.09 6.074-4.981 8.905a41.085 41.085 0 0 1-2.896 3.863c-.195.23-.527.625-.72.923.056.405.19.877.286 1.231.17.632.398 1.26.715 1.834.727 1.313 1.962 1.774 3.389 1.412 2.296-.585 4.333-1.942 6.143-3.432.553-.455 1.086-.966 1.64-1.417 1.192-.97 2.651-1.066 3.753.027 1.213 1.203.92 2.648.029 3.789-1.906 2.443-4.288 4.68-7.014 6.185-2.762 1.524-6.092 2.105-9.07.845-2.478-1.048-4.262-3.137-5.256-5.603-.6.454-1.249.926-1.901 1.302-.857.494-2.625.911-3.767-.753-1.017-1.48-.099-3.005.758-3.748.466-.403.973-.826 1.421-1.256a31.176 31.176 0 0 0 1.685-1.758c.09-.103.275-.288.35-.398-.006-.184-.038-.462-.05-.623-.03-.43-.054-.862-.07-1.294a52.454 52.454 0 0 1-.03-2.698c.055-3.749.466-7.49 1.049-11.192.55-3.486 1.27-6.95 2.177-10.36.818-3.074 1.795-6.13 3.095-9.037 1.23-2.75 2.813-5.779 5.444-7.43C73.192.71 74.369.35 75.599.357m.016 6.572c-.911.612-1.519 1.766-2.025 2.698-.732 1.347-1.325 2.767-1.859 4.202-1.238 3.326-2.137 6.777-2.872 10.246-.716 3.376-1.286 6.796-1.612 10.232l-.033.336c1.728-2.93 3.204-6.008 4.464-9.167a84.072 84.072 0 0 0 3.247-9.938c.418-1.599.787-3.215.963-4.86.112-1.047.189-2.165-.064-3.198-.043-.178-.099-.413-.209-.551"/><path d="M93.94 29.65c.744.126 1.648.643 2.15 1.435.482.762.526 1.602.443 2.473a13.393 13.393 0 0 1-.962 3.813c-.996 2.421-2.52 4.595-4.264 6.535-1.957 2.178-4.22 4.085-6.624 5.752a32.94 32.94 0 0 1-.615.419c2.768.598 5.483.83 8.191-.166 1.225-.45 2.642-1.433 3.33-1.989.61-.491 2.213-1.494 3.506-.364 1.465 1.28.829 2.75.32 3.443a12.093 12.093 0 0 1-1.694 1.822c-2.31 2.04-5.149 3.34-8.182 3.844-3.234.539-6.497.1-9.58-.96a31.443 31.443 0 0 1-4.305-1.874c-.74-.386-1.627-.815-2.02-1.602-.407-.813-.687-1.828-.315-2.72.38-.907.95-1.627 1.878-2.02.805-.34 1.592-.722 2.362-1.137 1.376-.74 2.7-1.579 3.969-2.493 2.529-1.825 4.935-3.989 6.682-6.594.104-.155.205-.31.303-.468a28.293 28.293 0 0 1-4.418-.169 28.1 28.1 0 0 1-2.45-.384 14.369 14.369 0 0 1-.994-.233c-.658-.186-2.141-.962-1.88-2.749.188-1.295 1.332-2.044 2.458-2.06.547-.01 1.524.09 2.119.102.812.017 1.624-.007 2.433-.068a23.97 23.97 0 0 0 4.083-.65 20.594 20.594 0 0 0 1.813-.553c.78-.278 1.585-.498 2.262-.384z"/></g></svg>
